X:037
%%topmargin 3cm
T:Ulster
C:Arranged by N. F. Tolman
B:The Nelson Music Collection
N:Newton F. Tolman & K. Dep. Gilbert
Z:Transcribed by Ralph Palmer
R:Hornpipe
L:1/16
M:2/4
K:G
(dc) | BGFG DGBd | cBAG F2Bd | gfed BAGB | c2A2 A2(dc) |
BGFG DGBd | cBAG E2Ac | Bgfe dcAc | B2G2 G2 ::
(dc) | BGBd gabg | abc'a gfed | ((3dfg) ((3fga) ((3gab) ((3abc') | bgfg e2(fg)|
bgfg egBd | FGAB cAGF |[1 GBdB egdc | B2G2 G2 :|][2 GBdB egfa | b2g2 g2 |]

